docs/Library/Element/Special/TranslationConnector.svg

<?xml version="1.0" encoding="UTF-8" standalone="no"?>
<!-- Created with Inkscape (http://www.inkscape.org/) -->

<svg
   width="142.36595mm"
   height="110.43489mm"
   viewBox="0 0 142.36595 110.43489"
   version="1.1"
   id="svg1"
   inkscape:version="1.3-dev (3bd6505e2, 2023-03-07)"
   sodipodi:docname="TranslationConnector.svg"
   xmlns:inkscape="http://www.inkscape.org/namespaces/inkscape"
   xmlns:sodipodi="http://sodipodi.sourceforge.net/DTD/sodipodi-0.dtd"
   xmlns:xlink="http://www.w3.org/1999/xlink"
   xmlns="http://www.w3.org/2000/svg"
   xmlns:svg="http://www.w3.org/2000/svg"
   xmlns:rdf="http://www.w3.org/1999/02/22-rdf-syntax-ns#"
   xmlns:cc="http://creativecommons.org/ns#">
  <sodipodi:namedview
     id="namedview1"
     pagecolor="#ffffff"
     bordercolor="#000000"
     borderopacity="0.25"
     inkscape:showpageshadow="2"
     inkscape:pageopacity="0.0"
     inkscape:pagecheckerboard="0"
     inkscape:deskcolor="#d1d1d1"
     inkscape:document-units="mm"
     showgrid="true"
     inkscape:zoom="2.2551429"
     inkscape:cx="109.74914"
     inkscape:cy="250.76016"
     inkscape:window-width="3840"
     inkscape:window-height="2131"
     inkscape:window-x="-9"
     inkscape:window-y="-6"
     inkscape:window-maximized="1"
     inkscape:current-layer="layer1">
    <sodipodi:guide
       position="30.905181,160.24879"
       orientation="0,304.46218"
       id="guide3"
       inkscape:locked="false" />
    <sodipodi:guide
       position="111.46081,160.24879"
       orientation="237.4153,0"
       id="guide4"
       inkscape:locked="false" />
    <sodipodi:guide
       position="111.46081,97.432658"
       orientation="0,-304.46218"
       id="guide5"
       inkscape:locked="false" />
    <sodipodi:guide
       position="30.905181,97.432658"
       orientation="-237.4153,0"
       id="guide6"
       inkscape:locked="false" />
  </sodipodi:namedview>
  <defs
     id="defs1">
    <marker
       style="overflow:visible"
       id="RoundedArrow"
       refX="0"
       refY="0"
       orient="auto-start-reverse"
       inkscape:stockid="RoundedArrow"
       markerWidth="6.1347523"
       markerHeight="5.9304953"
       viewBox="0 0 6.1347524 5.9304951"
       inkscape:isstock="true"
       inkscape:collect="always"
       preserveAspectRatio="xMidYMid">
      <path
         transform="scale(0.7)"
         d="m -0.21114562,-4.1055728 6.42229122,3.21114561 a 1,1 90 0 1 0,1.78885438 L -0.21114562,4.1055728 A 1.236068,1.236068 31.717474 0 1 -2,3 v -6 a 1.236068,1.236068 148.28253 0 1 1.78885438,-1.1055728 z"
         style="fill:#ff0071;fill-rule:evenodd;stroke:#ff0071;stroke-opacity:1.0;fill-opacity:1.0"
         id="path32" />
    </marker>
    <linearGradient
       id="linearGradient22"
       inkscape:collect="always">
      <stop
         style="stop-color:#0011ff;stop-opacity:1;"
         offset="0"
         id="stop22" />
      <stop
         style="stop-color:#000000;stop-opacity:0;"
         offset="1"
         id="stop23" />
    </linearGradient>
    <marker
       style="overflow:visible"
       id="ConcaveTriangle"
       refX="5"
       refY="0"
       orient="auto-start-reverse"
       inkscape:stockid="ConcaveTriangle"
       markerWidth="7.6999998"
       markerHeight="5.5999999"
       viewBox="0 0 7.7 5.6"
       inkscape:isstock="true"
       inkscape:collect="always"
       preserveAspectRatio="xMidYMid">
      <path
         transform="scale(0.7)"
         d="M -2,-4 9,0 -2,4 c 2,-2.33 2,-5.66 0,-8 z"
         style="fill:#ff0000;fill-rule:evenodd;stroke:#ff0000;stroke-opacity:1.0;fill-opacity:1.0"
         id="path22" />
    </marker>
    <marker
       style="overflow:visible"
       id="DartArrow"
       refX="5"
       refY="0"
       orient="auto-start-reverse"
       inkscape:stockid="DartArrow"
       markerWidth="8.75"
       markerHeight="5"
       viewBox="0 0 8.75 5"
       inkscape:isstock="true"
       inkscape:collect="always"
       preserveAspectRatio="xMidYMid">
      <path
         style="fill:#ff0000;fill-rule:evenodd;stroke:#ff0000;stroke-opacity:1.0;fill-opacity:1.0"
         d="M 0,0 5,-5 -12.5,0 5,5 Z"
         transform="scale(-0.5)"
         id="path21" />
    </marker>
    <marker
       style="overflow:visible"
       id="marker2"
       refX="0"
       refY="0"
       orient="auto"
       inkscape:stockid="marker2"
       markerWidth="2.4000001"
       markerHeight="2.4000001"
       viewBox="0 0 5.4 5.4"
       inkscape:isstock="true"
       inkscape:collect="always"
       preserveAspectRatio="xMidYMid">
      <path
         transform="scale(0.45)"
         style="fill:#7e7e7e;fill-rule:evenodd;stroke:#7e7e7e;stroke-width:2;stroke-opacity:1.0;fill-opacity:1.0"
         d="M 5,0 C 5,2.76 2.76,5 0,5 -2.76,5 -5,2.76 -5,0 c 0,-2.76 2.3,-5 5,-5 2.76,0 5,2.24 5,5 z"
         sodipodi:nodetypes="sssss"
         id="path2" />
    </marker>
    <marker
       style="overflow:visible"
       id="ColoredDot"
       refX="0"
       refY="0"
       orient="auto"
       inkscape:stockid="ColoredDot"
       markerWidth="2.4000001"
       markerHeight="2.4000001"
       viewBox="0 0 5.4 5.4"
       inkscape:isstock="true"
       inkscape:collect="always"
       preserveAspectRatio="xMidYMid">
      <path
         transform="scale(0.45)"
         style="fill:#7e7e7e;fill-rule:evenodd;stroke:#7e7e7e;stroke-width:2;stroke-opacity:1.0;fill-opacity:1.0"
         d="M 5,0 C 5,2.76 2.76,5 0,5 -2.76,5 -5,2.76 -5,0 c 0,-2.76 2.3,-5 5,-5 2.76,0 5,2.24 5,5 z"
         sodipodi:nodetypes="sssss"
         id="path20" />
    </marker>
    <linearGradient
       inkscape:collect="always"
       xlink:href="#linearGradient22"
       id="linearGradient23"
       x1="100.00341"
       y1="191.34695"
       x2="108.2409"
       y2="191.34695"
       gradientUnits="userSpaceOnUse"
       gradientTransform="translate(-1.7421788,1.4774808)" />
  </defs>
  <g
     inkscape:label="Layer 1"
     inkscape:groupmode="layer"
     id="layer1"
     transform="translate(-13.550556,-108.6634)">
    <path
       style="fill:#7e7e7e;fill-opacity:1;stroke:#7e7e7e;stroke-width:2.637;stroke-dasharray:none;stroke-opacity:1;marker-start:url(#marker2);marker-end:url(#ColoredDot)"
       d="m 69.43574,188.07002 79.76774,-38.58845"
       id="path24"
       sodipodi:nodetypes="cc" />
    <path
       style="fill:#000000;fill-opacity:1;stroke:#000000;stroke-width:2.637;stroke-dasharray:none;stroke-opacity:1;marker-start:url(#ColoredDot);marker-end:url(#marker2)"
       d="m 16.71149,141.00961 83.94548,74.92774"
       id="path1"
       sodipodi:nodetypes="cc" />
    <path
       style="fill:#000000;fill-opacity:1;stroke:#000000;stroke-width:2.637;stroke-dasharray:none;stroke-opacity:1;marker-start:url(#marker2);marker-end:url(#ColoredDot)"
       d="M 92.251271,162.50858 152.75548,111.82443"
       id="path3" />
    <path
       style="fill:none;fill-opacity:1;stroke:#ff0000;stroke-width:0.54;stroke-dasharray:none;stroke-opacity:1"
       d="M 92.251271,162.50858 69.43574,188.07002"
       id="path6" />
    <path
       style="fill:#ff0000;fill-opacity:1;stroke:#ff0000;stroke-width:0.54;stroke-dasharray:none;stroke-opacity:1;marker-end:url(#DartArrow)"
       d="M 100.65697,215.93735 92.251271,162.50858"
       id="path7" />
    <path
       style="fill:#ff0000;fill-opacity:1;stroke:#ff0000;stroke-width:0.54;stroke-dasharray:none;stroke-opacity:1;marker-end:url(#ConcaveTriangle)"
       d="M 100.65697,215.93735 16.71149,141.00961"
       id="path8" />
    <text
       xml:space="preserve"
       style="font-style:normal;font-variant:normal;font-weight:normal;font-stretch:normal;font-size:5.715px;font-family:Arial;-inkscape-font-specification:Arial;fill:#0011ff;fill-opacity:1;stroke:#0020ff;stroke-width:0.18;stroke-dasharray:none;stroke-opacity:1"
       x="108.5511"
       y="217.89639"
       id="text22"><tspan
         sodipodi:role="line"
         id="tspan22"
         style="font-style:normal;font-variant:normal;font-weight:normal;font-stretch:normal;font-family:Candara;-inkscape-font-specification:Candara;fill:#0011ff;fill-opacity:1;stroke-width:0.18;stroke-dasharray:none"
         x="108.5511"
         y="217.89639">node i</tspan></text>
    <text
       xml:space="preserve"
       style="font-style:normal;font-variant:normal;font-weight:normal;font-stretch:normal;font-size:5.715px;font-family:Candara;-inkscape-font-specification:Candara;fill:#0011ff;fill-opacity:1;stroke:#0020ff;stroke-width:0.18;stroke-dasharray:none;stroke-opacity:1"
       x="15.859191"
       y="133.6283"
       id="text23"><tspan
         sodipodi:role="line"
         id="tspan23"
         style="fill:#0011ff;fill-opacity:1;stroke-width:0.18"
         x="15.859191"
         y="133.6283">node j</tspan></text>
    <text
       xml:space="preserve"
       style="font-style:normal;font-variant:normal;font-weight:normal;font-stretch:normal;font-size:5.715px;font-family:Candara;-inkscape-font-specification:Candara;fill:#0011ff;fill-opacity:1;stroke:#0020ff;stroke-width:0.18;stroke-dasharray:none;stroke-opacity:1"
       x="76.14415"
       y="155.57974"
       id="text24"><tspan
         sodipodi:role="line"
         id="tspan24"
         style="fill:#0011ff;fill-opacity:1;stroke-width:0.18"
         x="76.14415"
         y="155.57974">node k</tspan></text>
    <text
       xml:space="preserve"
       style="font-style:normal;font-variant:normal;font-weight:normal;font-stretch:normal;font-size:5.715px;font-family:Candara;-inkscape-font-specification:Candara;fill:#ff0071;fill-opacity:1;stroke:#ff0071;stroke-width:0.18;stroke-dasharray:none;stroke-opacity:1"
       x="32.616993"
       y="169.31807"
       id="text25"><tspan
         sodipodi:role="line"
         id="tspan25"
         style="fill:#ff0071;fill-opacity:1;stroke:#ff0071;stroke-width:0.18;stroke-opacity:1"
         x="32.616993"
         y="169.31807">1-c</tspan></text>
    <text
       xml:space="preserve"
       style="font-style:normal;font-variant:normal;font-weight:normal;font-stretch:normal;font-size:5.715px;font-family:Candara;-inkscape-font-specification:Candara;fill:#ff0071;fill-opacity:1;stroke:#ff0071;stroke-width:0.18;stroke-dasharray:none;stroke-opacity:1"
       x="78.387138"
       y="206.35185"
       id="text26"><tspan
         sodipodi:role="line"
         id="tspan26"
         style="fill:#ff0071;fill-opacity:1;stroke:#ff0071;stroke-width:0.18;stroke-opacity:1"
         x="78.387138"
         y="206.35185">c</tspan></text>
    <text
       xml:space="preserve"
       style="font-style:normal;font-variant:normal;font-weight:normal;font-stretch:normal;font-size:5.715px;font-family:Candara;-inkscape-font-specification:Candara;fill:#ff0071;fill-opacity:1;stroke:#ff0071;stroke-width:0.18;stroke-dasharray:none;stroke-opacity:1"
       x="41.482475"
       y="117.23889"
       id="text27"><tspan
         sodipodi:role="line"
         id="tspan27"
         style="stroke-width:0.18"
         x="41.482475"
         y="117.23889">c is determined by initial</tspan><tspan
         sodipodi:role="line"
         style="stroke-width:0.18"
         x="41.482475"
         y="124.38264"
         id="tspan28">positions of nodes i, j, k</tspan><tspan
         sodipodi:role="line"
         style="stroke-width:0.18"
         x="41.482475"
         y="131.5264"
         id="tspan30">and remains constant</tspan></text>
    <path
       style="fill:none;fill-opacity:1;stroke:#ff0071;stroke-width:0.18;stroke-dasharray:none;stroke-opacity:1;marker-end:url(#RoundedArrow)"
       d="m 127.4413,136.53838 c 0,0 5.74919,2.98845 5.89851,7.84166 0.1494,4.85322 -0.97063,9.28262 -0.97063,9.28262"
       id="path31"
       sodipodi:nodetypes="ccc" />
    <text
       xml:space="preserve"
       style="font-style:normal;font-variant:normal;font-weight:normal;font-stretch:normal;font-size:5.715px;font-family:Candara;-inkscape-font-specification:Candara;fill:none;fill-opacity:1;stroke:#ff0071;stroke-width:0.18;stroke-dasharray:none;stroke-opacity:1"
       x="134.90776"
       y="144.80205"
       id="text32"><tspan
         sodipodi:role="line"
         id="tspan32"
         style="fill:#ff0071;fill-opacity:1;stroke-width:0.18"
         x="134.90776"
         y="144.80205">to</tspan></text>
  </g>
  <metadata
     id="metadata3">
    <rdf:RDF>
      <cc:Work
         rdf:about="">
        <cc:license
           rdf:resource="http://creativecommons.org/licenses/by-nc-nd/4.0/" />
      </cc:Work>
      <cc:License
         rdf:about="http://creativecommons.org/licenses/by-nc-nd/4.0/">
        <cc:permits
           rdf:resource="http://creativecommons.org/ns#Reproduction" />
        <cc:permits
           rdf:resource="http://creativecommons.org/ns#Distribution" />
        <cc:requires
           rdf:resource="http://creativecommons.org/ns#Notice" />
        <cc:requires
           rdf:resource="http://creativecommons.org/ns#Attribution" />
        <cc:prohibits
           rdf:resource="http://creativecommons.org/ns#CommercialUse" />
      </cc:License>
    </rdf:RDF>
  </metadata>
</svg>

<svg xmlns="http://www.w3.org/2000/svg" width="538.076" height="417.392" viewBox="0 0 142.366 110.435"><defs><marker id="f" markerHeight="5.93" markerWidth="6.135" orient="auto-start-reverse" preserveAspectRatio="xMidYMid" refX="0" refY="0" style="overflow:visible" viewBox="0 0 6.135 5.93"><path d="M-.211-4.106 6.21-.894a1 1 90 0 1 0 1.788L-.21 4.106A1.236 1.236 31.717 0 1-2 3v-6A1.236 1.236 148.283 0 1-.211-4.106z" style="fill:#ff0071;fill-rule:evenodd;stroke:#ff0071;stroke-opacity:1;fill-opacity:1" transform="scale(.7)"/></marker><marker id="e" markerHeight="5.6" markerWidth="7.7" orient="auto-start-reverse" preserveAspectRatio="xMidYMid" refX="5" refY="0" style="overflow:visible" viewBox="0 0 7.7 5.6"><path d="M-2-4 9 0-2 4c2-2.33 2-5.66 0-8z" style="fill:red;fill-rule:evenodd;stroke:red;stroke-opacity:1;fill-opacity:1" transform="scale(.7)"/></marker><marker id="d" markerHeight="5" markerWidth="8.75" orient="auto-start-reverse" preserveAspectRatio="xMidYMid" refX="5" refY="0" style="overflow:visible" viewBox="0 0 8.75 5"><path d="m0 0 5-5-17.5 5L5 5Z" style="fill:red;fill-rule:evenodd;stroke:red;stroke-opacity:1;fill-opacity:1" transform="scale(-.5)"/></marker><marker id="a" markerHeight="2.4" markerWidth="2.4" orient="auto" preserveAspectRatio="xMidYMid" refX="0" refY="0" style="overflow:visible" viewBox="0 0 5.4 5.4"><path d="M5 0c0 2.76-2.24 5-5 5s-5-2.24-5-5 2.3-5 5-5c2.76 0 5 2.24 5 5z" style="fill:#7e7e7e;fill-rule:evenodd;stroke:#7e7e7e;stroke-width:2;stroke-opacity:1;fill-opacity:1" transform="scale(.45)"/></marker><marker id="b" markerHeight="2.4" markerWidth="2.4" orient="auto" preserveAspectRatio="xMidYMid" refX="0" refY="0" style="overflow:visible" viewBox="0 0 5.4 5.4"><path d="M5 0c0 2.76-2.24 5-5 5s-5-2.24-5-5 2.3-5 5-5c2.76 0 5 2.24 5 5z" style="fill:#7e7e7e;fill-rule:evenodd;stroke:#7e7e7e;stroke-width:2;stroke-opacity:1;fill-opacity:1" transform="scale(.45)"/></marker></defs><path d="m69.436 188.07 79.767-38.588" style="fill:#7e7e7e;fill-opacity:1;stroke:#7e7e7e;stroke-width:2.637;stroke-dasharray:none;stroke-opacity:1;marker-start:url(#a);marker-end:url(#b)" transform="translate(-13.55 -108.663)"/><path d="m16.711 141.01 83.946 74.927" style="fill:#000;fill-opacity:1;stroke:#000;stroke-width:2.637;stroke-dasharray:none;stroke-opacity:1;marker-start:url(#b);marker-end:url(#a)" transform="translate(-13.55 -108.663)"/><path d="m92.251 162.509 60.504-50.685" style="fill:#000;fill-opacity:1;stroke:#000;stroke-width:2.637;stroke-dasharray:none;stroke-opacity:1;marker-start:url(#a);marker-end:url(#b)" transform="translate(-13.55 -108.663)"/><path d="M92.251 162.509 69.436 188.07" style="fill:none;fill-opacity:1;stroke:red;stroke-width:.54;stroke-dasharray:none;stroke-opacity:1" transform="translate(-13.55 -108.663)"/><path d="m100.657 215.937-8.406-53.428" style="fill:red;fill-opacity:1;stroke:red;stroke-width:.54;stroke-dasharray:none;stroke-opacity:1;marker-end:url(#d)" transform="translate(-13.55 -108.663)"/><path d="M100.657 215.937 16.711 141.01" style="fill:red;fill-opacity:1;stroke:red;stroke-width:.54;stroke-dasharray:none;stroke-opacity:1;marker-end:url(#e)" transform="translate(-13.55 -108.663)"/><text xml:space="preserve" x="108.551" y="217.896" style="font-style:normal;font-variant:normal;font-weight:400;font-stretch:normal;font-size:5.715px;font-family:Arial;-inkscape-font-specification:Arial;fill:#01f;fill-opacity:1;stroke:#0020ff;stroke-width:.18;stroke-dasharray:none;stroke-opacity:1" transform="translate(-13.55 -108.663)"><tspan x="108.551" y="217.896" style="font-style:normal;font-variant:normal;font-weight:400;font-stretch:normal;font-family:Candara;-inkscape-font-specification:Candara;fill:#01f;fill-opacity:1;stroke-width:.18;stroke-dasharray:none">node i</tspan></text><text xml:space="preserve" x="15.859" y="133.628" style="font-style:normal;font-variant:normal;font-weight:400;font-stretch:normal;font-size:5.715px;font-family:Candara;-inkscape-font-specification:Candara;fill:#01f;fill-opacity:1;stroke:#0020ff;stroke-width:.18;stroke-dasharray:none;stroke-opacity:1" transform="translate(-13.55 -108.663)"><tspan x="15.859" y="133.628" style="fill:#01f;fill-opacity:1;stroke-width:.18">node j</tspan></text><text xml:space="preserve" x="76.144" y="155.58" style="font-style:normal;font-variant:normal;font-weight:400;font-stretch:normal;font-size:5.715px;font-family:Candara;-inkscape-font-specification:Candara;fill:#01f;fill-opacity:1;stroke:#0020ff;stroke-width:.18;stroke-dasharray:none;stroke-opacity:1" transform="translate(-13.55 -108.663)"><tspan x="76.144" y="155.58" style="fill:#01f;fill-opacity:1;stroke-width:.18">node k</tspan></text><text xml:space="preserve" x="32.617" y="169.318" style="font-style:normal;font-variant:normal;font-weight:400;font-stretch:normal;font-size:5.715px;font-family:Candara;-inkscape-font-specification:Candara;fill:#ff0071;fill-opacity:1;stroke:#ff0071;stroke-width:.18;stroke-dasharray:none;stroke-opacity:1" transform="translate(-13.55 -108.663)"><tspan x="32.617" y="169.318" style="fill:#ff0071;fill-opacity:1;stroke:#ff0071;stroke-width:.18;stroke-opacity:1">1-c</tspan></text><text xml:space="preserve" x="78.387" y="206.352" style="font-style:normal;font-variant:normal;font-weight:400;font-stretch:normal;font-size:5.715px;font-family:Candara;-inkscape-font-specification:Candara;fill:#ff0071;fill-opacity:1;stroke:#ff0071;stroke-width:.18;stroke-dasharray:none;stroke-opacity:1" transform="translate(-13.55 -108.663)"><tspan x="78.387" y="206.352" style="fill:#ff0071;fill-opacity:1;stroke:#ff0071;stroke-width:.18;stroke-opacity:1">c</tspan></text><text xml:space="preserve" x="41.482" y="117.239" style="font-style:normal;font-variant:normal;font-weight:400;font-stretch:normal;font-size:5.715px;font-family:Candara;-inkscape-font-specification:Candara;fill:#ff0071;fill-opacity:1;stroke:#ff0071;stroke-width:.18;stroke-dasharray:none;stroke-opacity:1" transform="translate(-13.55 -108.663)"><tspan x="41.482" y="117.239" style="stroke-width:.18">c is determined by initial</tspan><tspan x="41.482" y="124.383" style="stroke-width:.18">positions of nodes i, j, k</tspan><tspan x="41.482" y="131.526" style="stroke-width:.18">and remains constant</tspan></text><path d="M127.441 136.538s5.75 2.989 5.899 7.842-.97 9.283-.97 9.283" style="fill:none;fill-opacity:1;stroke:#ff0071;stroke-width:.18;stroke-dasharray:none;stroke-opacity:1;marker-end:url(#f)" transform="translate(-13.55 -108.663)"/><text xml:space="preserve" x="134.908" y="144.802" style="font-style:normal;font-variant:normal;font-weight:400;font-stretch:normal;font-size:5.715px;font-family:Candara;-inkscape-font-specification:Candara;fill:none;fill-opacity:1;stroke:#ff0071;stroke-width:.18;stroke-dasharray:none;stroke-opacity:1" transform="translate(-13.55 -108.663)"><tspan x="134.908" y="144.802" style="fill:#ff0071;fill-opacity:1;stroke-width:.18">to</tspan></text></svg>
